X:1
T:Title
%%score { ( 1 4 ) | ( 2 3 ) }
L:1/8
M:6/8
K:Eb
V:1 treble nm="Grand Piano"
V:4 treble 
V:2 bass 
V:3 bass 
V:1
 z3 z2[Q:1/4=90] [EG]/[FA]/ | [GB][Ac][GB] GFE | [EA][Ec][Ee] B2 B | BcB GFE | %4
 GFF [DF]2 [EG]/[FA]/ | [GB][Ac][GB] GFE | G[GB][Ge] c2 c | ece e<.BG |[M:5/8] [DB][DF][DG] E2 | %9
[M:1/8] B |[M:3/4] [DB][DB] [EB][FB]/[EB]/ z [DB] | [EB][Ge] .[CAc][EGB]/[B,EG]/ z [B,EG] | %12
 [=B,FG][B,FG] [B,FG][Ge] [Gd][CGc] | [EG][DFG] [CE=A] [B,DB]2 [_Ad] | %14
 [Ge][Gf]- [Gf]/[Ge]/[GB] GE | %15
[M:27/32] G/-<G/[GB]/-<[GB]/[Ge]/-<[Ge]/[Bd]/c/4-c/4-c/4-c/4-c/-<c/c/4-c/-<c/ | %16
[M:3/4] z2 (3e3/2e/B z G- | G3/4 z/4 z z2 z2 |] %18
V:2
 z3 z2 [E,B,]/[E,B,]/ | [E,E][E,E][E,E] [E,B,E][E,A,D][E,G,] | %2
 [C,A,][A,,A,][C,A,] [E,G,E]2 [E,G,E] | [E,G,E][E,A,E][E,G,E] [E,B,E][E,A,D][E,G,] | %4
 [F,=A,E][F,A,E][F,A,E] [B,,B,]2 [E,B,]/[E,B,]/ | [E,E][E,E][E,E] [E,B,E][E,A,D][E,G,] | %6
 [E,B,E][E,E][E,E][K:treble] [A,EA]2 [A,E] | [A,CA][A,CE][A,=B,F] [_B,G]<.[B,G][K:bass][B,E] | %8
[M:5/8] [B,,F,][B,,A,][B,,B,] [E,G,]2 |[M:1/8] B, | %10
[M:3/4] [B,,F,][B,,F,] [B,,G,][B,,A,]/[B,,G,]/ z [B,,F,] | [E,G,][E,B,] z/ D/E,/E,/ z E, | %12
 D,D, D,[C,C] [D,=B,]E, | F,F, F, B,,2 B, | [E,B,][E,B,]- [E,B,]/[E,B,]/[E,E] [E,B,E][E,G,] | %15
[M:27/32] z/4 z/4 z/4 z/4 z/4 z/4 z/4 z/4 z/4 z/4 z/4 z/4[K:treble] z/ [A,E]/4-[A,E]/4-[A,E]/4-[A,E]/4-[A,E]/-<[A,E]/ z/4 z/4 z/4 z/ | %16
[M:3/4] (3:2:2[A,CA]3/2[A,CE]3/2 z2 z[K:bass] [B,E] | %17
 (7:8:7[B,,F,]3/4[B,,A,]-[B,,A,]/8[B,,B,]3/4[E,G,]3/8- [E,G,]2- [E,G,]/4 |] %18
V:3
 x6 | x6 | x6 | x6 | x6 | x6 | x3[K:treble] x3 | x5[K:bass] x |[M:5/8] x5 |[M:1/8] x |[M:3/4] x6 | %11
 z2 .E,2 z2 | x6 | x6 | x6 | %15
[M:27/32] [E,B,E]/-<[E,B,E]/[E,E]/-<[E,E]/[E,E]/-<[E,E]/[K:treble][A,E]/A/4-A/4-A/4-A/4-A/-<A/-[A,-E-A]/[A,E]3/4 | %16
[M:3/4] z2 (3[A,=B,F]3/2[_B,G]/[B,G] z2[K:bass] | x6 |] %18
V:4
 x6 | x6 | x6 | x6 | x6 | x6 | x6 | x6 |[M:5/8] x5 |[M:1/8] x |[M:3/4] x6 | x6 | x6 | x6 | x6 | %15
[M:27/32] x27/4 |[M:3/4] (3:2:2e3/2c3/2 z2 z2 | (7:8:7[DB]3/4[DF]-[DF]/8[DG]3/4E3/8- E2- E/4 |] %18

